X:75
T:T047A- The Old Jew
S:Brysson's Curious Collection (1791)
Q:1/4=120
L:1/4
M:3/4
K:Em
B2(e/^d/)|e2f|g3/2 a/ (a/g/)|{a/}~f2e|\
{e/}d{c/}Bg/a/|{g/}~f2e|{e/}d{c/}Be|E2F|\
G3/2 A/G|{e/}dBd|e3/2 f/ (g/a/)|{g/}f2(e/g/)|\
{e/}dB (A/G/)|A3/2G/ (A/B/)|{A/}GE{E/}^D|E3:]

